assets/icons/subtitles-filled.svg

<?xml version="1.0" encoding="UTF-8" standalone="no"?>
<svg viewBox="0 0 24 24" version="1.1" id="svg10" sodipodi:docname="subtitles-filled.svg" inkscape:version="1.1 (ce6663b3b7, 2021-05-25)" width="24" height="24"
   xmlns:inkscape="http://www.inkscape.org/namespaces/inkscape"
   xmlns:sodipodi="http://sodipodi.sourceforge.net/DTD/sodipodi-0.dtd"
   xmlns="http://www.w3.org/2000/svg"
   xmlns:svg="http://www.w3.org/2000/svg"
   xmlns:rdf="http://www.w3.org/1999/02/22-rdf-syntax-ns#"
   xmlns:cc="http://creativecommons.org/ns#"
   xmlns:dc="http://purl.org/dc/elements/1.1/">
   <metadata id="metadata16">
      <rdf:RDF>
         <cc:Work rdf:about="">
            <dc:format>image/svg+xml</dc:format>
            <dc:type rdf:resource="http://purl.org/dc/dcmitype/StillImage" />
         </cc:Work>
      </rdf:RDF>
   </metadata>
   <defs id="defs14" />
   <sodipodi:namedview pagecolor="#ffffff" bordercolor="#666666" borderopacity="1" objecttolerance="10" gridtolerance="10" guidetolerance="10" inkscape:pageopacity="0" inkscape:pageshadow="2" inkscape:window-width="1920" inkscape:window-height="1016" id="namedview12" showgrid="true" inkscape:zoom="27.499999" inkscape:cx="10.018182" inkscape:cy="10.418182" inkscape:window-x="0" inkscape:window-y="27" inkscape:window-maximized="1" inkscape:current-layer="svg10" inkscape:pagecheckerboard="0">
      <inkscape:grid type="xygrid" id="grid841" />
   </sodipodi:namedview>
   <path id="path864" style="color:#000000;fill:#808080;fill-opacity:1;-inkscape-stroke:none" d="M 19.212891 3 C 18.987242 2.9981376 18.75 3.0019531 18.5 3.0019531 L 5.5 3.0019531 C 5.2500003 3.0019531 5.012758 3.0000531 4.7871094 3.0019531 C 4.1101636 3.0075531 3.5365072 3.0501035 3.0273438 3.3046875 C 2.6879014 3.4744095 2.3973384 3.7671211 2.2304688 4.1425781 C 2.0635988 4.5180351 2 4.960287 2 5.5019531 L 2 15.501953 C 2 16.043619 2.0635989 16.485871 2.2304688 16.861328 C 2.3973384 17.236785 2.6879014 17.529497 3.0273438 17.699219 C 3.7062283 18.038661 4.500001 18.001953 5.5 18.001953 L 12.269531 18.001953 L 15.5 21.769531 L 18.757812 17.970703 C 19.616094 17.973503 20.364545 18.003273 20.972656 17.699219 C 21.312099 17.529497 21.602661 17.236785 21.769531 16.861328 C 21.936401 16.485871 22 16.043619 22 15.501953 L 22 5.5019531 C 22 4.960287 21.9364 4.5180351 21.769531 4.1425781 C 21.602661 3.7671211 21.312099 3.4744095 20.972656 3.3046875 C 20.463493 3.050106 19.889836 3.0055872 19.212891 3 z M 6.25 10.001953 L 12.75 10.001953 C 12.8885 10.001953 13 10.113453 13 10.251953 L 13 10.751953 C 13 10.890453 12.8885 11.001953 12.75 11.001953 L 6.25 11.001953 C 6.1115 11.001953 6 10.890453 6 10.751953 L 6 10.251953 C 6 10.113453 6.1115 10.001953 6.25 10.001953 z M 14.224609 10.001953 C 14.233034 10.001103 14.241344 10.001953 14.25 10.001953 L 15.75 10.001953 C 15.8885 10.001953 16 10.113453 16 10.251953 L 16 10.751953 C 16 10.890453 15.8885 11.001953 15.75 11.001953 L 14.25 11.001953 C 14.1115 11.001953 14 10.890453 14 10.751953 L 14 10.251953 C 14 10.122109 14.098239 10.01471 14.224609 10.001953 z M 17.224609 10.001953 C 17.233034 10.001103 17.241344 10.001953 17.25 10.001953 L 17.75 10.001953 C 17.8885 10.001953 18 10.113453 18 10.251953 L 18 10.751953 C 18 10.890453 17.8885 11.001953 17.75 11.001953 L 17.25 11.001953 C 17.1115 11.001953 17 10.890453 17 10.751953 L 17 10.251953 C 17 10.122109 17.098239 10.01471 17.224609 10.001953 z M 6.2246094 12.001953 C 6.2330341 12.001103 6.2413438 12.001953 6.25 12.001953 L 10.75 12.001953 C 10.8885 12.001953 11 12.113453 11 12.251953 L 11 12.751953 C 11 12.890453 10.8885 13.001953 10.75 13.001953 L 6.25 13.001953 C 6.1115 13.001953 6 12.890453 6 12.751953 L 6 12.251953 C 6 12.122109 6.0982391 12.01471 6.2246094 12.001953 z M 12.25 12.001953 L 17.75 12.001953 C 17.8885 12.001953 18 12.113453 18 12.251953 L 18 12.751953 C 18 12.890453 17.8885 13.001953 17.75 13.001953 L 12.25 13.001953 C 12.1115 13.001953 12 12.890453 12 12.751953 L 12 12.251953 C 12 12.113453 12.1115 12.001953 12.25 12.001953 z M 6.2246094 14.001953 C 6.2330341 14.001103 6.2413438 14.001953 6.25 14.001953 L 7.75 14.001953 C 7.8885 14.001953 8 14.113453 8 14.251953 L 8 14.751953 C 8 14.890453 7.8885 15.001953 7.75 15.001953 L 6.25 15.001953 C 6.1115 15.001953 6 14.890453 6 14.751953 L 6 14.251953 C 6 14.122109 6.0982391 14.01471 6.2246094 14.001953 z M 9.2246094 14.001953 C 9.2330341 14.001103 9.2413438 14.001953 9.25 14.001953 L 13.75 14.001953 C 13.8885 14.001953 14 14.113453 14 14.251953 L 14 14.751953 C 14 14.890453 13.8885 15.001953 13.75 15.001953 L 9.25 15.001953 C 9.1115 15.001953 9 14.890453 9 14.751953 L 9 14.251953 C 9 14.122109 9.0982391 14.01471 9.2246094 14.001953 z M 15.224609 14.001953 C 15.233034 14.001103 15.241344 14.001953 15.25 14.001953 L 17.75 14.001953 C 17.8885 14.001953 18 14.113453 18 14.251953 L 18 14.751953 C 18 14.890453 17.8885 15.001953 17.75 15.001953 L 15.25 15.001953 C 15.1115 15.001953 15 14.890453 15 14.751953 L 15 14.251953 C 15 14.122109 15.098239 14.01471 15.224609 14.001953 z " />
</svg>

<svg width="24" height="24" xmlns="http://www.w3.org/2000/svg"><path style="color:#000;fill:gray;fill-opacity:1;-inkscape-stroke:none" d="M19.213 3c-.226-.002-.463.002-.713.002h-13c-.25 0-.487-.002-.713 0-.677.006-1.25.048-1.76.303-.34.17-.63.462-.797.838-.166.375-.23.817-.23 1.359v10c0 .542.064.984.23 1.36.167.375.458.667.797.837.68.34 1.473.303 2.473.303h6.77l3.23 3.768 3.258-3.8c.858.004 1.607.033 2.215-.27.34-.17.63-.463.797-.839.166-.375.23-.817.23-1.359v-10c0-.542-.064-.984-.23-1.36a1.72 1.72 0 0 0-.797-.837c-.51-.255-1.083-.3-1.76-.305zM6.25 10.002h6.5a.25.25 0 0 1 .25.25v.5a.25.25 0 0 1-.25.25h-6.5a.25.25 0 0 1-.25-.25v-.5a.25.25 0 0 1 .25-.25zm7.975 0h1.525a.25.25 0 0 1 .25.25v.5a.25.25 0 0 1-.25.25h-1.5a.25.25 0 0 1-.25-.25v-.5a.25.25 0 0 1 .225-.25zm3 0h.525a.25.25 0 0 1 .25.25v.5a.25.25 0 0 1-.25.25h-.5a.25.25 0 0 1-.25-.25v-.5a.25.25 0 0 1 .225-.25zm-11 2h4.525a.25.25 0 0 1 .25.25v.5a.25.25 0 0 1-.25.25h-4.5a.25.25 0 0 1-.25-.25v-.5a.25.25 0 0 1 .225-.25zm6.025 0h5.5a.25.25 0 0 1 .25.25v.5a.25.25 0 0 1-.25.25h-5.5a.25.25 0 0 1-.25-.25v-.5a.25.25 0 0 1 .25-.25zm-6.025 2H7.75a.25.25 0 0 1 .25.25v.5a.25.25 0 0 1-.25.25h-1.5a.25.25 0 0 1-.25-.25v-.5a.25.25 0 0 1 .225-.25zm3 0h4.525a.25.25 0 0 1 .25.25v.5a.25.25 0 0 1-.25.25h-4.5a.25.25 0 0 1-.25-.25v-.5a.25.25 0 0 1 .225-.25zm6 0h2.525a.25.25 0 0 1 .25.25v.5a.25.25 0 0 1-.25.25h-2.5a.25.25 0 0 1-.25-.25v-.5a.25.25 0 0 1 .225-.25z"/></svg>
